!!!COM: Palestrina, Giovanni Perluigi da
!!!OPR: Missa Quam pulchra es
!!!OMD: Credo
!!!OTL: Crucifixus
**kern	**kern	**kern
*Itenor	*Icalto	*Icant
!Tenor	!Altus	!Cantus
*clefGv2	*clefG2	*clefG2
*k[]	*k[]	*k[]
*C:ion	*C:ion	*C:ion
*M4/2	*M4/2	*M4/2
=90	=90	=90
0r	1r	0g
.	[1c	.
=91	=91	=91
1r	1c]	1a
[1G	1d	1b
=92	=92	=92
1G]	1e	1g
1A	1c	1r
=93	=93	=93
1B	1r	2.dd
.	.	4dd
1G	2.g	2b
.	.	2b
.	4g	.
=94	=94	=94
1r	2e	2.cc
.	2e	.
.	.	4b
2.d	1f	1a
4d	.	.
=95	=95	=95
2B	2d	1.g
2B	2d	.
2.c	2e	.
.	2e	2g
4B	.	.
=96	=96	=96
1A	2f	2a
.	2e	2a
[1G	1g	2b
.	.	4g
.	.	4a
=97	=97	=97
1G]	2g	4b
.	.	4cc
.	2d	4dd
.	.	4b
1r	2e	2cc
.	2e	2b
=98	=98	=98
0r	2f	2a
.	4d	2dd
.	4e	.
.	4f	2.cc
.	4g	.
.	4a	.
.	4f	4dd
=99	=99	=99
2r	1g	4ee
.	.	4dd
2G	.	1dd
2A	1e	.
2A	.	2cc#
=100	=100	=100
2B	1d	2.dd
4G	.	.
4A	.	4dd
4B	4G	1b
4c	4A	.
4d	4B	.
4e	4c	.
=101	=101	=101
4f	4d	2.a
4g	4e	.
2.a	2f	.
.	.	4b
.	2c	4cc
4g	.	4b
[2g	2e	4a
.	.	4g
=102	=102	=102
2g]	1d	2a
2f#	.	2d
2g	2r	4e
.	.	4f#
2c	2e	4g
.	.	4a
=103	=103	=103
2G	2.g	4b
.	.	4cc
2B	.	2.dd
.	4f	.
2c	2e	.
.	.	4cc
2A	4d	[2cc
.	4c	.
=104	=104	=104
1G	1d	2cc]
.	.	2b
2.c	1e	2cc
.	.	[2ee
4B	.	.
=105	=105	=105
1A	1a	2ee]
.	.	2cc
1r	2f	2dd
.	2g	2ee
=106	=106	=106
0r	2a	4ff
.	.	4ee
.	4b	4dd
.	4a	4cc
.	4g	2dd
.	4f	.
.	2g	[2ee
=107	=107	=107
1.e	4c	4ee]
.	4d	4dd
.	4e	2cc
.	4f	.
.	2g	2b
2c	[2a	2a
=108	=108	=108
2d	2a]	1b
2e	2g#	.
4f	1a	2a
4e	.	.
4d	.	[2dd
4c	.	.
=109	=109	=109
2d	0r	2dd]
2.e	.	2cc
.	.	2b
4d	.	.
4c	.	[2cc
4B	.	.
=110	=110	=110
1A	1c	4cc]
.	.	4b
.	.	1a
1B	2.d	.
.	.	2g#
.	4e	.
=111	=111	=111
2A	2f	1a
2c	2e	.
2d	2f	2r
2e	2e	2g
=112	=112	=112
2.f	1d	2a
.	.	2b
8e	.	.
8d	.	.
2e	1A	2.cc
2f	.	.
.	.	8b
.	.	8a
=113	=113	=113
2g	1e	2b
2e	.	2cc
2f	1r	2dd
4g	.	2b
4f	.	.
=114	=114	=114
4e	1r	0cc
4d	.	.
4c	.	.
4B	.	.
2A	2r	.
[2a	2c	.
=115	=115	=115
2a]	2d	1b
2g#	2e	.
2a	2.f	1a
2d	.	.
.	8e	.
.	8d	.
=116	=116	=116
2e	2c	2r
2f	2d	2a
2.g	2G	2.b
.	2g	.
8f	.	4cc
8e	.	.
=117	=117	=117
2f	2a	1dd
2g	2b	.
4c	2.cc	[1ee
4d	.	.
4e	.	.
4f	8b	.
.	8a	.
=118	=118	=118
2g	2b	1ee]
2a	1cc	.
2f	.	1dd
2g	2b	.
=119	=119	=119
2d	2.a	2r
1f	.	2cc
.	4g	.
.	4a	2dd
.	4b	.
2e	[2cc	2ee
=120	=120	=120
1d	2cc]	2.ff
.	2b	.
.	.	8ee
.	.	8dd
[1c	1cc	2ee
.	.	2ee
=121	=121	=121
1c]	2r	4gg
.	.	4ff
.	2g	4ee
.	.	4dd
1r	2a	2cc
.	2b	2b
=122	=122	=122
0r	2.cc	1a
.	8b	.
.	8a	.
.	2b	2g
.	2b	2dd
=123	=123	=123
2r	4cc	1ee
.	4b	.
2c	4a	.
.	4g	.
2d	2f	2dd
2e	2e	2g
=124	=124	=124
2.f	1d	2a
.	.	2b
8e	.	.
8d	.	.
2e	1c	2.cc
2e	.	.
.	.	8b
.	.	8a
=125	=125	=125
4g	2r	2b
4f	.	.
4e	2g	2b
4d	.	.
2c	2a	2cc
2B	2b	2dd
=126	=126	=126
1A	2.cc	2ee
.	.	2ff
.	8b	.
.	8a	.
1G	2b	2gg
.	2b	2dd
=127	=127	=127
0r	4cc	2ee
.	4b	.
.	4a	4ff
.	4g	4ee
.	2f	4dd
.	.	4cc
.	2e	[2cc
=128	=128	=128
2r	1d	4cc]
.	.	8b
.	.	8a
2G	.	2b
2A	2r	2cc
2B	2d	2dd
=129	=129	=129
2.c	2.e	1g
8B	4f	.
8A	.	.
2B	2g	2r
2c	2e	2g
=130	=130	=130
2F	2f	2a
2G	4e	2b
.	4d	.
1A	4c	2.cc
.	4d	.
.	4e	.
.	4f	8b
.	.	8a
=131	=131	=131
2r	2g	2b
2c	1a	2cc
2d	.	2.b
2e	2g	.
.	.	4cc
=132	=132	=132
2f	2a	1dd
2g	2b	.
[1c	2.cc	2.ee
.	4b	4dd
=133	=133	=133
1c]	2a	2cc
.	1g	2b
1d	.	1a
.	2f#	.
=134	=134	=134
0G	0g	0b
*-	*-	*-
!!!CDT: 1525/^1526/-1594/2/2
!!!OCY: Italia
!!!AGN: Mass (Parody)
!!!AST: renaissance, vocal
!!!ASW: Motet 1532 (Johannes Lupi)
!!!PWK: Masses, Book 6
!!!RNB: Cadence finals: G
!!!YOR: Le Opere Complete, v. 21, p. 73
!!!YOO: Rome, Italy: Fratelli Scalera
!!!END: 1992//
!!!EED: John Miller
!!!YEC: Copyright 2000, John Miller
!!!YEN: United States of America
!!!YEM: Rights to all derivative electronic formats reserved.
!!!YEM: Refer to licensing agreement for further details.
!!!YEM: This file must be accompanied by the licensing agreement.
!!!YEM: A copy of the licensing agreement may be found at http://www.music-cog.ohio-state.edu/HumdrumDatabases/Palestrina/license.txt
!!!EMD: converted to Humdrum by Bret Aarden
